X:1
T: Maid of Athens
C:
R:Reel
Q: 232
K:D
M:4/4
L:1/8
|:FA AF GF ED|FA Ac dA BG|FA AF GF GB|AF dF E2 D2|
FA AF GF ED|FA Ac dA BG|FA AF GF GB|AF dF E2 D2|
fd df ge eg|fd ed cA A2|fd df ge eg|fd ec d2 d2|
fd df ge eg|fd ed cA A2|FA AF GF GB|AF dF E2 D2:|
